X: 29382
T: Newyorkers, The
R: slip jig
M: 9/8
K: Edorian
M:7/8
L:1/8
B|ef gf edB|AB dB e2B|ef gf edB|AB dB e2B|
ef ge a2g|gf ed efB|AB de f2A|FA dc B2B|
|:gf ed edB|gB fB e2d|gf ed edB|AB dB e2B:|
|:E2 ED EFd|B2A2B2A GF|E2 ED EFd|B2A Bde2e2:|

